X:1
T:Karolinermarschen
R:march
C:Eric Sahlstrom
S:Eric Sahlstrom booklet
Z:From the book "Eric Sahlstrom"
M:2/4
L:1/8
Q:1/4=80
K:Em
F: https://www.youtube.com/watch?v=8gdFDApYZ0Y
D | E>F (G/2F/2)G/2A/2 | B2 A(B/2A/2) | G(A/2G/2) FD | E3 G |
 B/2 ^c/2 B/2 A/2 Bc | d2 ^c2 | (A>=c) e^d |1 B3 :|2 B3 E |
|: e2 ee | d2  BA | c(B/2c/2) ed | B3 A | 
   G2 {F/G/}BA | F2 D2 |1  E3 E :|2 E5 | E3 |]
